assets/IDEX.svg

<svg width="164" height="156" xmlns="http://www.w3.org/2000/svg" xmlns:xlink="http://www.w3.org/1999/xlink" overflow="hidden"><defs><clipPath id="clip0"><rect x="491" y="111" width="164" height="156"/></clipPath></defs><g clip-path="url(#clip0)" transform="translate(-491 -111)"><path d="M78 0C121.078 0.00243897 155.998 34.9262 155.996 78.0044 155.993 121.083 121.069 156.002 77.9912 156 34.913 155.998-0.00684991 121.074-0.00441094 77.9956-0.00439535 77.7204-0.00292333 77.4452 5.08921e-06 77.17 0.42 34.64 35.18-0.11 78 0ZM79.66 5.66C38.24 5.67 5.88 38 5.71 77.55 5.53 117.49 38 150.35 78 150.21 97.81 150.14 114.92 143.13 128.92 129.16 144.85 113.27 151.83 93.78 150.01 71.46 148.731 54.5971 141.33 38.7839 129.2 27 115.09 13 97.93 5.92 79.64 5.66Z" fill="#FFFFFF" transform="matrix(1.00305 0 0 1 491 111.02)"/><path d="M148.08 70.34C146.583 54.4318 139.497 39.5688 128.08 28.39 114.27 14.53 97.44 7.49 77.82 7.46 38.8809 8.24859 7.95374 40.4543 8.74233 79.3934 9.50475 117.04 39.7092 147.447 77.35 148.46 96.89 148.6 113.84 141.76 127.64 127.94 143.49 112.08 150.33 92.71 148.08 70.34ZM108.45 23.13C109.637 23.1525 110.581 24.1332 110.559 25.3204 110.536 26.5076 109.556 27.4518 108.368 27.4292 107.181 27.4067 106.237 26.426 106.26 25.2388 106.26 25.2325 106.26 25.2263 106.26 25.22 106.298 24.0427 107.272 23.113 108.45 23.13ZM98.8 18.64C100.017 18.6455 101 19.6333 101 20.85 100.962 22.0297 99.9799 22.9581 98.8 22.93 97.6514 22.9472 96.7063 22.03 96.689 20.8814 96.6885 20.8476 96.6889 20.8138 96.69 20.78 96.6952 19.6119 97.6321 18.6617 98.8 18.64ZM88.64 15.88C89.7742 15.9913 90.6819 16.87 90.83 18 90.7451 19.2356 89.7084 20.1889 88.47 20.17 87.3022 20.132 86.3785 19.1684 86.39 18 86.4439 16.8014 87.4404 15.8626 88.64 15.88ZM78 15C79.1819 14.9945 80.1444 15.9482 80.1499 17.1301 80.1554 18.3119 79.2017 19.2745 78.0198 19.28 76.8419 19.2854 75.881 18.3379 75.87 17.16 75.8699 15.9787 76.8188 15.0164 78 15ZM67.49 15.89C68.6276 15.9543 69.5357 16.8624 69.6 18 69.5953 19.1874 68.6289 20.1462 67.4415 20.1415 67.4177 20.1414 67.3938 20.1409 67.37 20.14 66.1992 20.129 65.259 19.171 65.27 18.0002 65.27 18.0001 65.27 18.0001 65.27 18 65.3177 16.8263 66.2754 15.895 67.45 15.88ZM57.21 18.64C58.3896 18.6564 59.3356 19.6203 59.33 20.8 59.3578 21.9484 58.4494 22.902 57.301 22.9298 57.2707 22.9305 57.2403 22.9306 57.21 22.93 56.0231 22.9633 55.0339 22.028 55.0006 20.8411 54.9998 20.8107 54.9996 20.7804 55 20.75 55.0585 19.5709 56.0295 18.6439 57.21 18.64ZM47.55 23.13C48.7346 23.0491 49.7606 23.9438 49.8415 25.1285 49.9225 26.3131 49.0277 27.3391 47.8431 27.42 47.7455 27.4267 47.6476 27.4267 47.55 27.42 46.3653 27.3391 45.4706 26.3131 45.5515 25.1285 45.6248 24.0565 46.4781 23.2032 47.55 23.13ZM38.92 29.2C40.0984 29.2268 41.0442 30.1814 41.06 31.36 41.0545 32.5396 40.0996 33.4945 38.92 33.5 37.7779 33.5498 36.8116 32.6642 36.7618 31.5221 36.7602 31.4847 36.7596 31.4474 36.76 31.41 36.7157 30.2345 37.6327 29.2456 38.8083 29.2013 38.8455 29.1999 38.8827 29.1994 38.92 29.2ZM31.46 36.69C32.6388 36.7387 33.5628 37.7204 33.54 38.9 33.5127 40.0757 32.5459 41.0113 31.37 41 30.1921 40.9683 29.2462 40.018 29.22 38.84 29.2682 37.642 30.2511 36.6944 31.45 36.69ZM25.33 45.41C26.4785 45.3876 27.4278 46.3005 27.4502 47.449 27.4508 47.4793 27.4507 47.5097 27.45 47.54 27.4613 48.7214 26.5212 49.6927 25.34 49.72 24.1301 49.6985 23.156 48.72 23.14 47.51 23.1779 46.3351 24.1445 45.404 25.32 45.41ZM20.85 55C22.0484 55.0104 23.0115 55.9904 23.0011 57.1888 23.0009 57.2059 23.0006 57.2229 23 57.24 22.8912 58.4335 21.8354 59.3128 20.6419 59.204 19.55 59.1044 18.7039 58.2059 18.67 57.11 18.7129 55.9357 19.6749 55.0046 20.85 55ZM18.05 65.23C19.2606 65.2353 20.2437 66.2095 20.26 67.42 20.2273 68.5973 19.2576 69.5314 18.08 69.52 16.9368 69.5257 16.0054 68.6036 15.9996 67.4604 15.9996 67.4436 15.9997 67.4268 16 67.41 15.9829 66.2471 16.8977 65.2834 18.06 65.24ZM15 78C15.0255 76.8221 15.9628 75.8673 17.14 75.82 18.3218 75.8089 19.2889 76.758 19.3 77.9398 19.3 77.9399 19.3 77.9399 19.3 77.94 19.3516 79.1097 18.4453 80.0998 17.2756 80.1515 17.2037 80.1546 17.1318 80.1541 17.06 80.15 15.9211 80.0729 15.0284 79.1411 15 78ZM16 88.55C15.9944 87.3703 16.9404 86.4064 18.12 86.39 19.3282 86.4116 20.2994 87.3916 20.31 88.6 20.2719 89.7797 19.2899 90.7081 18.11 90.68 16.9727 90.7087 16.0274 89.81 15.9987 88.6727 15.9975 88.6251 15.9979 88.5775 16 88.53ZM20.9 100.93C19.7184 100.952 18.7381 100.021 18.7 98.84 18.7105 97.6299 19.6802 96.647 20.89 96.62 22.0464 96.6768 22.9649 97.6128 23 98.77 22.9945 99.9496 22.0396 100.905 20.86 100.91ZM25.37 110.56C24.1933 110.55 23.2327 109.616 23.19 108.44 23.1843 107.247 24.1467 106.275 25.3396 106.27 25.3564 106.27 25.3732 106.27 25.39 106.27 26.533 106.247 27.478 107.155 27.5008 108.298 27.5015 108.336 27.5013 108.373 27.5 108.41 27.5003 109.586 26.547 110.54 25.3706 110.541 25.3537 110.541 25.3369 110.54 25.32 110.54ZM25.37 93.76 25.48 93.37 48.28 93.37C54.2 93.37 54.2 93.37 54.2 87.37 54.2 82.37 54.25 77.37 54.2 72.37 54.2 70.74 54.42 69.98 56.37 70.06 60.66 70.24 64.97 70.18 69.26 70.06 70.76 70.06 71.26 70.52 71.26 71.99 71.2133 80.3833 71.2133 88.78 71.26 97.18 71.26 98.78 70.76 99.59 69.07 99.43 68.578 99.3783 68.082 99.3783 67.59 99.43 65.66 99.64 65 98.89 65 97 65.09 90.93 65 84.87 65 78.8 65 77.13 64.48 76.36 62.69 76.36 60.9 76.36 60.31 76.92 60.34 78.7 60.42 84.77 60.34 90.84 60.41 96.9 60.41 98.9 59.8 99.46 57.87 99.43 51.73 99.33 45.57 99.71 39.47 99.26 36.59 99.05 33.8 97.43 31.01 96.33 29.12 95.59 27.24 94.62 25.33 93.74ZM31.68 119.28C30.4674 119.419 29.3717 118.549 29.2328 117.336 29.22 117.224 29.2157 117.112 29.22 117 29.2921 115.795 30.273 114.844 31.48 114.81 32.6825 114.972 33.5987 115.968 33.66 117.18 33.4885 118.23 32.6833 119.063 31.64 119.27ZM38.88 126.71C37.7368 126.711 36.8089 125.786 36.8076 124.642 36.8075 124.608 36.8084 124.574 36.81 124.54 36.8264 123.359 37.7887 122.41 38.97 122.41 40.1456 122.452 41.0843 123.404 41.11 124.58 41.1015 125.762 40.1365 126.713 38.9546 126.705 38.9131 126.704 38.8715 126.703 38.83 126.7ZM47.66 132.8C46.5066 132.844 45.5357 131.945 45.4915 130.792 45.4905 130.764 45.49 130.737 45.49 130.71 45.4513 129.518 46.3865 128.52 47.5788 128.481 47.5992 128.48 47.6196 128.48 47.64 128.48 48.8162 128.512 49.759 129.464 49.78 130.64 49.7913 131.816 48.8468 132.779 47.6705 132.79 47.6503 132.79 47.6302 132.79 47.61 132.79ZM57.28 137.27C56.0889 137.336 55.0696 136.424 55.0033 135.233 55.001 135.192 54.9999 135.151 55 135.11 55.0673 133.947 56.0151 133.029 57.18 133 58.3613 133.005 59.3191 133.959 59.33 135.14 59.3521 136.289 58.439 137.238 57.2905 137.26 57.2703 137.26 57.2502 137.26 57.23 137.26ZM49.14 104.78C47.24 104.02 45.42 103.06 43.56 102.19L43.79 101.58C53.5167 101.58 63.2467 101.58 72.98 101.58 77.5 101.58 76.92 101.98 76.93 97.58 76.93 84.53 76.98 71.47 76.93 58.42 76.93 56.27 77.52 55.62 79.67 55.7 83.83 55.86 87.99 55.8 92.16 55.7 93.66 55.7 94.33 56.09 94.33 57.7 94.2967 73.86 94.2967 90.0167 94.33 106.17 94.33 107.91 93.59 108.45 91.99 108.17 91.4471 108.028 90.8906 107.944 90.33 107.92 87.68 108.01 87.67 108.03 87.67 105.25 87.67 91.9167 87.67 78.5833 87.67 65.25 87.67 64.15 88.09 62.73 86.26 62.44 84.12 62.1 83.48 62.6 83.48 64.84 83.48 78.3867 83.48 91.9333 83.48 105.48 83.48 108.24 83.48 108.25 80.64 108.25 73.58 108.25 66.53 108.15 59.47 108.25 55.43 108.41 52.45 106.12 49.09 104.78ZM67.49 140C66.3089 140.044 65.3157 139.123 65.2715 137.941 65.2705 137.914 65.27 137.887 65.27 137.86 65.27 136.662 66.2415 135.69 67.44 135.69 68.6385 135.69 69.61 136.662 69.61 137.86 69.5994 139.03 68.6595 139.978 67.49 140ZM78 141C76.7889 140.978 75.8233 139.981 75.84 138.77 75.8731 137.572 76.8712 136.628 78.0692 136.661 79.2672 136.694 80.2115 137.692 80.1783 138.89 80.1457 140.068 79.1786 141.005 78 141ZM88.4 140C87.256 139.92 86.3759 138.957 86.4 137.81 86.4442 136.612 87.4515 135.676 88.65 135.72 89.8485 135.764 90.7842 136.772 90.74 137.97 90.6845 139.151 89.6825 140.063 88.5019 140.007 88.4679 140.006 88.4339 140.003 88.4 140ZM98.79 137.26C97.6415 137.283 96.6921 136.37 96.6695 135.221 96.6689 135.188 96.669 135.154 96.67 135.12 96.6964 133.96 97.6303 133.026 98.79 133 99.996 133.027 100.964 134.004 100.98 135.21 100.926 136.374 99.9549 137.283 98.79 137.26ZM108.44 132.78C107.269 132.808 106.298 131.881 106.271 130.711 106.27 130.7 106.27 130.69 106.27 130.68 106.264 129.469 107.239 128.481 108.45 128.47 109.631 128.497 110.571 129.469 110.56 130.65 110.588 131.804 109.675 132.762 108.521 132.79 108.491 132.79 108.46 132.791 108.43 132.79ZM110.25 112.15C110.57 108.97 110.11 64.28 110.12 50.73 110.12 49.42 110.26 48.2 108.25 48.23 106.63 48.23 106.25 48.82 106.25 50.35 106.31 57.4 106.14 110.03 106.14 110.03 106.14 110.03 106.14 114.36 106.14 116.65 105.39 116.73 104.78 116.84 104.14 116.85 94.98 116.85 85.81 117.03 76.66 116.75 74.36 116.68 72.07 115.22 69.83 114.28 67.229 113.241 64.737 111.948 62.39 110.42 62.99 110.42 63.59 110.31 64.19 110.31L94.87 110.44C99.57 110.44 99.5 110.44 99.5 105.92 99.5 85.32 99.5 64.72 99.5 44.11 99.5 42.38 99.89 41.58 101.85 41.64 106.29 41.78 110.74 41.73 115.18 41.64 116.67 41.64 117.18 42.15 117.18 43.64 117.18 59.0933 117.18 74.5433 117.18 89.99 117.18 97.99 117.18 105.99 117.18 113.99 117.18 116.84 117.18 116.84 114.24 116.85 109.7 116.89 109.77 116.77 110.24 112.16ZM117.1 126.69C115.922 126.701 114.956 125.758 114.94 124.58 114.956 123.37 115.939 122.395 117.15 122.39 118.33 122.423 119.262 123.4 119.24 124.58 119.274 125.717 118.38 126.667 117.243 126.701 117.192 126.703 117.141 126.702 117.09 126.7ZM117.17 33.49C115.983 33.5342 114.986 32.6081 114.941 31.4215 114.941 31.3977 114.94 31.3738 114.94 31.35 114.961 30.1736 115.904 29.2219 117.08 29.19 118.258 29.1844 119.219 30.132 119.23 31.31 119.296 32.4513 118.425 33.4302 117.283 33.4965 117.242 33.4989 117.201 33.5001 117.16 33.5ZM124.57 119.21C123.385 119.21 122.425 118.25 122.425 117.065 122.425 115.88 123.385 114.92 124.57 114.92 125.755 114.92 126.715 115.88 126.715 117.065 126.715 118.25 125.755 119.21 124.57 119.21ZM124.57 41.03C123.372 41.03 122.4 40.0585 122.4 38.86 122.4 37.6615 123.372 36.69 124.57 36.69 125.768 36.69 126.74 37.6615 126.74 38.86 126.74 40.0585 125.768 41.03 124.57 41.03ZM140 67.43C140.023 68.573 139.115 69.518 137.972 69.5408 137.934 69.5415 137.897 69.5413 137.86 69.54 136.676 69.5511 135.706 68.6035 135.69 67.42 135.711 66.1886 136.727 65.2076 137.958 65.2289 137.972 65.2291 137.986 65.2295 138 65.23 139.148 65.3099 140.03 66.2796 140 67.43ZM130.66 45.43C131.839 45.4352 132.798 46.3811 132.82 47.56 132.788 48.7659 131.806 49.7297 130.6 49.74 129.423 49.6966 128.497 48.7178 128.52 47.54 128.491 46.3916 129.399 45.4372 130.547 45.4082 130.598 45.4069 130.649 45.4075 130.7 45.41ZM130.66 110.56C129.484 110.56 128.53 109.606 128.53 108.43 128.53 108.427 128.53 108.423 128.53 108.42 128.486 107.278 129.376 106.316 130.518 106.271 130.555 106.27 130.593 106.269 130.63 106.27 131.823 106.242 132.812 107.187 132.839 108.379 132.84 108.396 132.84 108.413 132.84 108.43 132.793 109.594 131.845 110.52 130.68 110.54ZM135.14 55C136.319 54.9992 137.287 55.9318 137.33 57.11 137.33 58.3085 136.358 59.28 135.16 59.28 133.962 59.28 132.99 58.3085 132.99 57.11 133.027 55.945 133.974 55.0154 135.14 55ZM135.21 100.91C134.03 100.944 133.043 100.02 133 98.84 132.898 97.6459 133.783 96.595 134.977 96.4928 136.171 96.3905 137.222 97.2756 137.324 98.4697 137.332 98.5629 137.334 98.6565 137.33 98.75 137.33 99.9275 136.387 100.888 135.21 100.91ZM137.86 90.66C136.685 90.6384 135.741 89.6852 135.73 88.51 135.773 87.2956 136.785 86.3419 138 86.37 139.156 86.4501 140.04 87.432 140 88.59 140.001 89.7332 139.074 90.6605 137.931 90.6612 137.907 90.6612 137.884 90.6608 137.86 90.66ZM138.86 80.1C137.718 80.1498 136.752 79.2644 136.702 78.1222 136.7 78.0815 136.699 78.0407 136.7 78 136.589 76.901 137.39 75.9202 138.489 75.8092 138.536 75.8045 138.583 75.8014 138.63 75.8 139.892 75.7108 140.987 76.6612 141.076 77.9227 141.078 77.9485 141.079 77.9742 141.08 78 141.081 79.1598 140.141 80.1005 138.981 80.1012 138.957 80.1012 138.934 80.1008 138.91 80.1Z" fill="#FFFFFF" transform="matrix(1.00305 0 0 1 491 111.02)"/><path d="M195.55 140 175.24 140 175.24 28 195.55 28Z" fill="#FFFFFF" transform="matrix(1.00305 0 0 1 491 111.02)"/><path d="M331.1 93.14C331.174 99.6004 329.964 106.011 327.54 112 323.04 123.215 314.126 132.085 302.89 136.53 296.954 138.897 290.61 140.076 284.22 140L229.38 140C227.988 140.013 226.608 139.748 225.32 139.22 222.868 138.226 220.924 136.282 219.93 133.83 219.402 132.542 219.137 131.162 219.15 129.77L219.15 38.21C219.139 36.8379 219.405 35.4776 219.93 34.21 220.431 32.9897 221.161 31.8765 222.08 30.93 222.999 29.9863 224.102 29.241 225.32 28.74 226.608 28.213 227.988 27.9478 229.38 27.96L284.22 27.96C290.614 27.8999 296.957 29.0959 302.89 31.48 314.134 35.9341 323.049 44.8203 327.54 56.05 329.949 62.0186 331.155 68.4041 331.09 74.84ZM310.78 74.86C310.826 71.1526 310.178 67.4693 308.87 64 307.677 60.8464 305.826 57.983 303.44 55.6 301.039 53.2471 298.18 51.4126 295.04 50.21 291.585 48.8998 287.915 48.2518 284.22 48.3L239.45 48.3 239.45 119.7 284.22 119.7C287.901 119.744 291.558 119.096 295 117.79 298.14 116.589 301 114.754 303.4 112.4 305.78 110.028 307.63 107.179 308.83 104.04 310.145 100.559 310.793 96.861 310.74 93.14Z" fill="#FFFFFF" transform="matrix(1.00305 0 0 1 491 111.02)"/><path d="M452.27 140 379 140C375.872 139.952 372.766 139.454 369.78 138.52 362.668 136.4 356.745 131.44 353.41 124.81 351.392 120.667 350.414 116.096 350.56 111.49L350.56 38.21C350.549 36.8379 350.815 35.4776 351.34 34.21 351.841 32.9897 352.571 31.8765 353.49 30.93 354.409 29.9861 355.512 29.2407 356.73 28.74 358.018 28.213 359.398 27.9478 360.79 27.96L452.27 27.96 452.27 48.29 370.86 48.29 370.86 111.49C370.708 113.722 371.47 115.92 372.97 117.58 374.377 118.987 376.433 119.69 379.14 119.69L452.27 119.69ZM443.13 94.22 379 94.22 379 73.76 443.14 73.76Z" fill="#FFFFFF" transform="matrix(1.00305 0 0 1 491 111.02)"/><path d="M523 68 557.22 28 585 28 536.8 84.15 584.69 140 557.11 140 523 100.32 489.14 140 461.49 140 509.3 84.15 461.33 28 488.83 28Z" fill="#FFFFFF" transform="matrix(1.00305 0 0 1 491 111.02)"/></g></svg>

<svg viewBox="0 0 156 156" xmlns="http://www.w3.org/2000/svg"><circle cx="78" cy="78" fill="#fff" r="75.87"/><path d="m78 0a78 78 0 1 1 -78 78v-.83c.42-42.53 35.18-77.28 78-77.17zm1.66 5.66c-41.42.01-73.78 32.34-73.95 71.89-.18 39.94 32.29 72.8 72.29 72.66 19.81-.07 36.92-7.08 50.92-21.05 15.93-15.89 22.91-35.38 21.09-57.7a69.24 69.24 0 0 0 -20.81-44.46c-14.11-14-31.27-21.08-49.56-21.34z" fill="#333"/><path d="m148.08 70.34a67.52 67.52 0 0 0 -20-41.95c-13.81-13.86-30.64-20.9-50.26-20.93a70.52 70.52 0 0 0 -.47 141c19.54.14 36.49-6.7 50.29-20.52 15.85-15.86 22.69-35.23 20.44-57.6zm-39.63-47.21a2.15 2.15 0 1 1 -2.19 2.11 2.16 2.16 0 0 1 2.19-2.11zm-9.65-4.49a2.21 2.21 0 0 1 2.2 2.21 2.14 2.14 0 0 1 -2.2 2.08 2.08 2.08 0 0 1 -2.11-2.05v-.1a2.16 2.16 0 0 1 2.11-2.14zm-10.16-2.76a2.44 2.44 0 0 1 2.19 2.12 2.32 2.32 0 0 1 -2.36 2.17 2.16 2.16 0 0 1 -2.08-2.17 2.22 2.22 0 0 1 2.25-2.12zm-10.64-.88a2.14 2.14 0 1 1 -2.13 2.16 2.16 2.16 0 0 1 2.13-2.16zm-10.51.89a2.23 2.23 0 0 1 2.11 2.11 2.14 2.14 0 0 1 -2.15 2.14h-.08a2.12 2.12 0 0 1 -2.1-2.14 2.22 2.22 0 0 1 2.18-2.12zm-10.28 2.75a2.15 2.15 0 0 1 2.12 2.16 2.08 2.08 0 0 1 -2 2.13h-.1a2.15 2.15 0 0 1 -2.23-2.09.28.28 0 0 1 0-.09 2.22 2.22 0 0 1 2.21-2.11zm-9.66 4.49a2.15 2.15 0 1 1 .3 4.29h-.3a2.15 2.15 0 0 1 0-4.29zm-8.63 6.07a2.19 2.19 0 0 1 2.14 2.16 2.15 2.15 0 0 1 -2.14 2.14 2.07 2.07 0 0 1 -2.15-2 .37.37 0 0 1 0-.11 2.14 2.14 0 0 1 2.05-2.21zm-7.46 7.49a2.16 2.16 0 0 1 2.08 2.21 2.14 2.14 0 0 1 -2.17 2.1 2.22 2.22 0 0 1 -2.15-2.16 2.24 2.24 0 0 1 2.23-2.15zm-6.13 8.72a2.08 2.08 0 0 1 2.12 2 .14.14 0 0 1 0 .09 2.15 2.15 0 0 1 -2.11 2.18 2.24 2.24 0 0 1 -2.2-2.21 2.18 2.18 0 0 1 2.18-2.1zm-4.48 9.59a2.18 2.18 0 0 1 2.15 2.19v.05a2.17 2.17 0 0 1 -4.33-.13 2.2 2.2 0 0 1 2.18-2.11zm-2.8 10.23a2.22 2.22 0 0 1 2.21 2.19 2.16 2.16 0 0 1 -2.18 2.1 2.07 2.07 0 0 1 -2.08-2.06 2.15 2.15 0 0 1 2.06-2.17zm-3.05 12.77a2.24 2.24 0 0 1 2.14-2.18 2.14 2.14 0 0 1 2.16 2.12 2.11 2.11 0 0 1 -2 2.21h-.22a2.22 2.22 0 0 1 -2.08-2.15zm1 10.55a2.16 2.16 0 0 1 2.12-2.16 2.23 2.23 0 0 1 2.19 2.21 2.14 2.14 0 0 1 -2.2 2.08 2.06 2.06 0 0 1 -2.11-2v-.12zm4.9 12.38a2.16 2.16 0 0 1 -2.2-2.09 2.24 2.24 0 0 1 2.19-2.22 2.21 2.21 0 0 1 2.11 2.15 2.15 2.15 0 0 1 -2.14 2.14zm4.47 9.63a2.21 2.21 0 0 1 -2.18-2.12 2.17 2.17 0 0 1 2.15-2.17h.05a2.08 2.08 0 0 1 2.12 2 .41.41 0 0 1 0 .11 2.12 2.12 0 0 1 -2.12 2.13h-.06zm0-16.8.11-.39h22.8c5.92 0 5.92 0 5.92-6 0-5 0-10 0-15 0-1.63.22-2.39 2.17-2.31 4.29.18 8.6.12 12.89 0 1.5 0 2 .46 2 1.93q-.06 12.58 0 25.19c0 1.6-.5 2.41-2.19 2.25a7.32 7.32 0 0 0 -1.48 0c-1.93.21-2.59-.54-2.59-2.43.09-6.07 0-12.13 0-18.2 0-1.67-.52-2.44-2.31-2.44s-2.38.56-2.35 2.34c.08 6.07 0 12.14.07 18.2 0 2-.61 2.56-2.54 2.53-6.14-.1-12.3.28-18.4-.17-2.88-.21-5.67-1.83-8.46-2.93-1.89-.74-3.77-1.71-5.68-2.59zm6.31 25.52a2.2 2.2 0 0 1 -2.44-1.94 2 2 0 0 1 0-.34 2.33 2.33 0 0 1 2.26-2.19 2.51 2.51 0 0 1 2.18 2.37 2.54 2.54 0 0 1 -2 2.09zm7.2 7.43a2.07 2.07 0 0 1 -2.07-2.07v-.1a2.16 2.16 0 0 1 2.19-2.13 2.21 2.21 0 0 1 2.14 2.17 2.13 2.13 0 0 1 -2.14 2.12h-.08zm8.78 6.09a2.08 2.08 0 0 1 -2.16-2 .22.22 0 0 1 0-.08 2.17 2.17 0 0 1 2.09-2.23h.06a2.19 2.19 0 0 1 2.14 2.16 2.12 2.12 0 0 1 -2.11 2.15zm9.62 4.47a2.15 2.15 0 0 1 -2.27-2s0-.08 0-.12a2.25 2.25 0 0 1 2.17-2.15 2.16 2.16 0 0 1 2.15 2.14 2.07 2.07 0 0 1 -2 2.12zm-8.14-32.49c-1.9-.76-3.72-1.72-5.58-2.59l.23-.61h29.21c4.52 0 3.94.4 4-4 0-13 0-26.11 0-39.16 0-2.15.59-2.8 2.74-2.72 4.16.16 8.32.1 12.49 0 1.5 0 2.17.39 2.17 2q0 24.24 0 48.47c0 1.74-.74 2.28-2.34 2a7.65 7.65 0 0 0 -1.66-.25c-2.65.09-2.66.11-2.66-2.67v-40c0-1.1.42-2.52-1.41-2.81-2.14-.34-2.78.16-2.78 2.4v40.64c0 2.76 0 2.77-2.84 2.77-7.06 0-14.11-.1-21.17 0-4 .16-7-2.13-10.38-3.47zm18.35 35.22a2.14 2.14 0 0 1 -2.21-2.06.22.22 0 0 1 0-.08 2.17 2.17 0 1 1 2.21 2.14zm10.51 1a2.2 2.2 0 0 1 -2.16-2.23 2.17 2.17 0 1 1 2.16 2.23zm10.4-1a2.15 2.15 0 0 1 -2-2.19 2.17 2.17 0 0 1 4.34.16 2.14 2.14 0 0 1 -2.23 2zm10.39-2.74a2.09 2.09 0 0 1 -2.12-2v-.1a2.17 2.17 0 0 1 2.12-2.16 2.23 2.23 0 0 1 2.19 2.21 2.15 2.15 0 0 1 -2.19 2.05zm9.65-4.48a2.12 2.12 0 0 1 -2.17-2.07 2.2 2.2 0 0 1 2.18-2.21 2.15 2.15 0 0 1 2.11 2.18 2.09 2.09 0 0 1 -2 2.14h-.09zm1.81-20.63c.32-3.18-.14-47.87-.13-61.42 0-1.31.14-2.53-1.87-2.5-1.62 0-2 .59-2 2.12.06 7-.11 59.68-.11 59.68v6.62c-.75.08-1.36.19-2 .2-9.16 0-18.33.18-27.48-.1-2.3-.07-4.59-1.53-6.83-2.47a42.67 42.67 0 0 1 -7.44-3.86c.6 0 1.2-.11 1.8-.11l30.68.13c4.7 0 4.63 0 4.63-4.52v-61.81c0-1.73.39-2.53 2.35-2.47 4.44.14 8.89.09 13.33 0 1.49 0 2 .51 2 2v70.36c0 2.85 0 2.85-2.94 2.86-4.54 0-4.47-.08-4-4.69zm6.85 14.54a2.15 2.15 0 0 1 -2.16-2.11 2.23 2.23 0 0 1 2.21-2.19 2.14 2.14 0 0 1 2.09 2.19 2 2 0 0 1 -2 2.12h-.15zm.07-93.2a2.15 2.15 0 0 1 -2.17-2.07.17.17 0 0 1 0-.07 2.21 2.21 0 0 1 2.14-2.16 2.13 2.13 0 0 1 2.15 2.12 2.07 2.07 0 0 1 -1.94 2.19h-.12zm7.4 85.72a2.15 2.15 0 0 1 0-4.29 2.15 2.15 0 1 1 0 4.29zm0-78.18a2.17 2.17 0 1 1 2.17-2.17 2.17 2.17 0 0 1 -2.17 2.14zm15.43 26.4a2.06 2.06 0 0 1 -2 2.11h-.12a2.16 2.16 0 0 1 -2.17-2.12 2.24 2.24 0 0 1 2.29-2.19 2.15 2.15 0 0 1 2 2.2zm-9.34-22a2.17 2.17 0 0 1 2.16 2.13 2.23 2.23 0 0 1 -2.22 2.18 2.16 2.16 0 0 1 -2.08-2.2 2.09 2.09 0 0 1 2-2.13h.15zm0 65.13a2.13 2.13 0 0 1 -2.13-2.13 2.08 2.08 0 0 1 2-2.15h.11a2.15 2.15 0 0 1 2.21 2.11v.05a2.19 2.19 0 0 1 -2.16 2.11zm4.48-55.56a2.14 2.14 0 1 1 -2.14 2.11 2.19 2.19 0 0 1 2.14-2.11zm.07 45.91a2.16 2.16 0 0 1 -2.21-2.07 2.17 2.17 0 1 1 4.33-.37 1.31 1.31 0 0 1 0 .28 2.16 2.16 0 0 1 -2.12 2.16zm2.65-10.25a2.18 2.18 0 0 1 -2.13-2.15 2.23 2.23 0 0 1 2.27-2.14 2.15 2.15 0 0 1 2 2.22 2.06 2.06 0 0 1 -2.06 2.07zm1-10.56a2.07 2.07 0 0 1 -2.15-2 .49.49 0 0 1 0-.12 2 2 0 0 1 1.79-2.19h.14a2.29 2.29 0 0 1 2.45 2.12v.09a2.08 2.08 0 0 1 -2.09 2.1h-.13z" fill="#004b6a"/></svg>
